packages/katcn/src/icons/svg/uploadCloud-solid.svg

<svg width="24" height="24" viewBox="0 0 24 24" fill="none" xmlns="http://www.w3.org/2000/svg">
<path d="M18.1682 7.2C17.9626 7.2 17.8598 7.2 17.6542 7.2C16.5234 5.2 14.3645 4 12 4C9.63551 4 7.47664 5.2 6.34579 7.2C6.14019 7.2 5.93458 7.2 5.83178 7.2C3.15888 7.2 1 9.3 1 11.9C1 14.5 3.15888 16.6 5.83178 16.6H8.91589V20C8.91589 20.5 9.42991 21 9.94393 21C10.4579 21 10.972 20.5 10.972 20V11.8L10.0467 12.8C9.84112 13 9.53271 13.1 9.3271 13.1C9.01869 13.1 8.81308 13 8.60748 12.8C8.19626 12.4 8.19626 11.7 8.60748 11.3L11.2804 8.7C11.6916 8.3 12.3084 8.3 12.7196 8.7L15.3925 11.3C15.8037 11.7 15.8037 12.3 15.3925 12.7C14.9813 13.1 14.3645 13.1 13.9533 12.7L13.028 11.8V16.6H18.1682C20.8411 16.6 23 14.5 23 11.9C23 9.3 20.8411 7.2 18.1682 7.2Z" fill="black"/>
</svg>

<svg xmlns="http://www.w3.org/2000/svg" fill="none" viewBox="0 0 24 24"><path fill="#000" d="M18.168 7.2h-.514C16.524 5.2 14.364 4 12 4S7.477 5.2 6.346 7.2h-.514C3.159 7.2 1 9.3 1 11.9s2.159 4.7 4.832 4.7h3.084V20c0 .5.514 1 1.028 1s1.028-.5 1.028-1v-8.2l-.925 1c-.206.2-.514.3-.72.3a.95.95 0 0 1-.72-.3c-.41-.4-.41-1.1 0-1.5l2.673-2.6c.412-.4 1.028-.4 1.44 0l2.672 2.6c.412.4.412 1 0 1.4-.41.4-1.027.4-1.439 0l-.925-.9v4.8h5.14c2.673 0 4.832-2.1 4.832-4.7s-2.159-4.7-4.832-4.7"/></svg>
